X: 31621
T: Pantaloon Quadrille, The
R: jig
M: 6/8
K: Dmajor
|:d2 d|dcd e2 e|d3 f2 f|g2 g e2 e|a2fd2d|
dcd f/e/d/e/f/e/|d3 f2 f|agf edc|d3:|
a2 a|gfe f2 f|e3 d2 e|d2 e Bcd|cBA a2 a|
gfe g/f/^e/f/g/f/|e3dfd|cec BAB|A3|
f2 d|Bcd e2 c|AcA FGA|Bcd dcB|^A2 F f2e|
dfg g2 g|efg fge|dec Bc^A|B3||

